; generated by PrusaSlicer 2.3.0 on 2021-03-28 at 14:20:18 UTC

; 

; external perimeters extrusion width = 0.45mm
; perimeters extrusion width = 0.45mm
; infill extrusion width = 0.45mm
; solid infill extrusion width = 0.45mm
; top infill extrusion width = 0.40mm
; first layer extrusion width = 0.42mm

M201 X500 Y500 Z100 E5000 ; sets maximum accelerations, mm/sec^2
M203 X500 Y500 Z10 E60 ; sets maximum feedrates, mm/sec
M204 P500 R1000 T500 ; sets acceleration (P, T) and retract acceleration (R), mm/sec^2
M205 X8.00 Y8.00 Z0.40 E5.00 ; sets the jerk limits, mm/sec
M205 S0 T0 ; sets the minimum extruding and travel feed rate, mm/sec
M107
;TYPE:Custom
G90 ; use absolute coordinates
M83 ; extruder relative mode
M104 S150 ; set extruder temp for auto bed leveling
M140 S60 ; set bed temp
G28 ; home all
G29 ; auto bed levelling
G1 Z50 F240
G1 X2 Y10 F3000
M104 S210 ; set extruder temp
M190 S60 ; wait for bed temp
M109 S210 ; wait for extruder temp
G1 Z0.28 F240
G92 E0
G1 Y190 E15 F1500 ; intro line
G1 X2.3 F5000
G92 E0
G1 Y10 E15 F1200 ; intro line
G92 E0
G21 ; set units to millimeters
G90 ; use absolute coordinates
M83 ; use relative distances for extrusion
; Filament gcode
;LAYER_CHANGE
;Z:0.2
;HEIGHT:0.2
;BEFORE_LAYER_CHANGE
G92 E0
;0.2


G1 E-5.00000 F3600.000
G1 Z0.200 F9000.000
;AFTER_LAYER_CHANGE
;0.2
G1 X154.302 Y68.051
G1 E5.00000 F2400.000
;TYPE:Skirt
;WIDTH:0.42
G1 F1200.000
G1 X155.064 Y68.553 E0.02860
G1 X155.581 Y69.305 E0.02860
G1 X155.777 Y70.199 E0.02872
G1 X155.777 Y160.761 E2.83951
G1 X155.676 Y161.437 E0.02142
G1 X155.388 Y162.053 E0.02130
G1 X155.013 Y162.496 E0.01823
G1 X154.540 Y162.836 E0.01823
G1 X154.000 Y163.050 E0.01823
G1 X153.424 Y163.127 E0.01823
G1 X92.585 Y163.127 E1.90757
G1 X91.913 Y163.026 E0.02130
G1 X91.297 Y162.738 E0.02130
G1 X90.744 Y162.236 E0.02343
G1 X90.375 Y161.586 E0.02343
G1 X75.367 Y120.814 E1.36224
G1 X75.223 Y120.016 E0.02543
G1 X75.223 Y110.973 E0.28352
G1 X75.324 Y110.313 E0.02095
G1 X90.371 Y69.425 E1.36605
G1 X90.612 Y68.947 E0.01680
G1 X90.985 Y68.506 E0.01811
G1 X91.453 Y68.168 E0.01811
G1 X91.989 Y67.953 E0.01811
G1 X92.561 Y67.873 E0.01811
G1 X153.404 Y67.873 E1.90768
G1 X154.244 Y68.039 E0.02684
G1 E-3.50000 F3600.000
;WIPE_START
G1 F7200.000
G1 X155.064 Y68.553 E-0.45985
G1 X155.581 Y69.305 E-0.43333
G1 X155.777 Y70.199 E-0.43511
G1 X155.777 Y70.403 E-0.09671
;WIPE_END
G1 E-0.07500 F3600.000
G1 X137.313 Y151.088 F9000.000
G1 E5.00000 F2400.000
;TYPE:External perimeter
G1 F1200.000
G1 X137.312 Y158.817 E0.24232
G1 X137.283 Y160.088 E0.03987
G1 X128.517 Y160.088 E0.27487
G1 X128.488 Y158.817 E0.03987
G1 X128.487 Y151.088 E0.24232
G1 X137.253 Y151.088 E0.27485
G1 X137.702 Y150.993 F9000.000
G1 E-3.50000 F3600.000
;WIPE_START
G1 F7200.000
G1 X137.276 Y154.088 E-1.42500
;WIPE_END
G1 E-0.07500 F3600.000
G1 X125.691 Y157.022 F9000.000
G1 E5.00000 F2400.000
;TYPE:Perimeter
G1 F1200.000
G1 X125.798 Y157.700 E0.02153
G1 X125.691 Y158.378 E0.02153
G1 X125.379 Y158.992 E0.02157
G1 X124.892 Y159.479 E0.02161
G1 X124.278 Y159.791 E0.02157
G1 X123.600 Y159.898 E0.02153
G1 X122.922 Y159.791 E0.02153
G1 X122.308 Y159.479 E0.02157
G1 X121.821 Y158.992 E0.02161
G1 X121.510 Y158.379 E0.02155
G1 X121.401 Y157.700 E0.02156
G1 X121.510 Y157.021 E0.02156
G1 X121.821 Y156.408 E0.02155
G1 X122.308 Y155.921 E0.02161
G1 X122.922 Y155.609 E0.02157
G1 X123.600 Y155.502 E0.02153
G1 X124.278 Y155.609 E0.02153
G1 X124.892 Y155.921 E0.02157
G1 X125.379 Y156.408 E0.02161
G1 X125.664 Y156.968 E0.01969
G1 X125.327 Y157.139 F9000.000
;TYPE:External perimeter
G1 F1200.000
G1 X125.416 Y157.700 E0.01780
G1 X125.328 Y158.261 E0.01780
G1 X125.070 Y158.767 E0.01782
G1 X124.667 Y159.170 E0.01785
G1 X124.161 Y159.428 E0.01782
G1 X123.600 Y159.516 E0.01780
G1 X123.039 Y159.428 E0.01780
G1 X122.533 Y159.170 E0.01782
G1 X122.130 Y158.767 E0.01785
G1 X121.873 Y158.261 E0.01781
G1 X121.783 Y157.700 E0.01781
G1 X121.873 Y157.139 E0.01781
G1 X122.130 Y156.633 E0.01781
G1 X122.533 Y156.230 E0.01785
G1 X123.039 Y155.972 E0.01782
G1 X123.600 Y155.884 E0.01780
G1 X124.161 Y155.972 E0.01780
G1 X124.667 Y156.230 E0.01782
G1 X125.070 Y156.633 E0.01785
G1 X125.300 Y157.086 E0.01593
G1 X125.719 Y157.223 F9000.000
G1 E-3.50000 F3600.000
;WIPE_START
G1 F7200.000
G1 X125.416 Y157.700 E-0.29696
G1 X125.328 Y158.261 E-0.26961
G1 X125.070 Y158.767 E-0.26999
G1 X124.667 Y159.170 E-0.27048
G1 X124.161 Y159.428 E-0.26999
G1 X124.061 Y159.443 E-0.04798
;WIPE_END
G1 E-0.07500 F3600.000
G1 X137.690 Y150.711 F9000.000
G1 E5.00000 F2400.000
;TYPE:Perimeter
G1 F1200.000
G1 X128.110 Y150.711 E0.30039
G1 X128.111 Y158.821 E0.25428
G1 X128.139 Y160.074 E0.03930
G1 X93.287 Y160.063 E1.09276
G1 X93.287 Y70.937 E2.79448
G1 X152.713 Y70.937 E1.86326
G1 X152.713 Y160.063 E2.79448
G1 X137.661 Y160.076 E0.47195
G1 X137.689 Y158.821 E0.03937
G1 X137.690 Y150.771 E0.25240
G1 E-3.50000 F3600.000
;WIPE_START
G1 F7200.000
G1 X134.690 Y150.752 E-1.42500
;WIPE_END
G1 E-0.07500 F3600.000
G1 X153.090 Y160.440 F9000.000
G1 E5.00000 F2400.000
;TYPE:External perimeter
G1 F1200.000
G1 X138.447 Y160.440 E0.45911
G1 X136.952 Y160.465 E0.04688
G1 X128.982 Y160.465 E0.24990
G1 X127.487 Y160.440 E0.04688
G1 X92.910 Y160.440 E1.08414
G1 X92.910 Y70.560 E2.81812
G1 X153.090 Y70.560 E1.88690
G1 X153.090 Y160.380 E2.81624
G1 X152.711 Y160.312 F9000.000
G1 E-3.50000 F3600.000
;WIPE_START
G1 F7200.000
G1 X150.090 Y160.392 E-1.42500
;WIPE_END
G1 E-0.07500 F3600.000
G1 X124.894 Y159.713 F9000.000
G1 E5.00000 F2400.000
;TYPE:Gap fill
;WIDTH:0.118907
G1 F1200.000
G1 X124.672 Y159.874 E0.00174
G1 E-3.50000 F3600.000
;WIPE_START
G1 F7200.000
G1 X124.894 Y159.713 E-0.13050
;WIPE_END
G1 E-1.36950 F3600.000
G1 X122.528 Y159.874 F9000.000
G1 E5.00000 F2400.000
;WIDTH:0.144493
G1 F1200.000
G1 X122.417 Y159.794 E0.00116
;WIDTH:0.118907
G1 X122.306 Y159.713 E0.00087
G1 E-3.50000 F3600.000
;WIPE_START
G1 F7200.000
G1 X122.417 Y159.794 E-0.06525
;WIPE_END
G1 E-1.43475 F3600.000
G1 X152.600 Y71.815 F9000.000
G1 E5.00000 F2400.000
;TYPE:Solid infill
;WIDTH:0.42117
G1 F1200.000
G1 X152.005 Y71.220 E0.02647
G1 X151.470 Y71.220 E0.01682
G1 X152.430 Y72.180 E0.04271
G1 X152.430 Y72.715 E0.01682
G1 X150.935 Y71.220 E0.06651
G1 X150.400 Y71.220 E0.01682
G1 X152.430 Y73.250 E0.09030
G1 X152.430 Y73.785 E0.01682
G1 X149.865 Y71.220 E0.11409
G1 X149.330 Y71.220 E0.01682
G1 X152.430 Y74.320 E0.13789
G1 X152.430 Y74.855 E0.01682
G1 X148.795 Y71.220 E0.16168
G1 X148.260 Y71.220 E0.01682
G1 X152.430 Y75.390 E0.18547
G1 X152.430 Y75.925 E0.01682
G1 X147.725 Y71.220 E0.20927
G1 X147.190 Y71.220 E0.01682
G1 X152.430 Y76.460 E0.23306
G1 X152.430 Y76.995 E0.01682
G1 X146.655 Y71.220 E0.25685
G1 X146.121 Y71.220 E0.01682
G1 X152.430 Y77.529 E0.28065
G1 X152.430 Y78.064 E0.01682
G1 X145.586 Y71.220 E0.30444
G1 X145.051 Y71.220 E0.01682
G1 X152.430 Y78.599 E0.32823
G1 X152.430 Y79.134 E0.01682
G1 X144.516 Y71.220 E0.35202
G1 X143.981 Y71.220 E0.01682
G1 X152.430 Y79.669 E0.37582
G1 X152.430 Y80.204 E0.01682
G1 X143.446 Y71.220 E0.39961
G1 X142.911 Y71.220 E0.01682
G1 X152.430 Y80.739 E0.42340
G1 X152.430 Y81.274 E0.01682
G1 X142.376 Y71.220 E0.44720
G1 X141.841 Y71.220 E0.01682
G1 X152.430 Y81.809 E0.47099
G1 X152.430 Y82.344 E0.01682
G1 X141.306 Y71.220 E0.49478
G1 X140.771 Y71.220 E0.01682
G1 X152.430 Y82.879 E0.51858
G1 X152.430 Y83.414 E0.01682
G1 X140.236 Y71.220 E0.54237
G1 X139.701 Y71.220 E0.01682
G1 X152.430 Y83.949 E0.56616
G1 X152.430 Y84.483 E0.01682
G1 X139.167 Y71.220 E0.58996
G1 X138.632 Y71.220 E0.01682
G1 X152.430 Y85.018 E0.61375
G1 X152.430 Y85.553 E0.01682
G1 X138.097 Y71.220 E0.63754
G1 X137.562 Y71.220 E0.01682
G1 X152.430 Y86.088 E0.66134
G1 X152.430 Y86.623 E0.01682
G1 X137.027 Y71.220 E0.68513
G1 X136.492 Y71.220 E0.01682
G1 X152.430 Y87.158 E0.70892
G1 X152.430 Y87.693 E0.01682
G1 X135.957 Y71.220 E0.73272
G1 X135.422 Y71.220 E0.01682
G1 X152.430 Y88.228 E0.75651
G1 X152.430 Y88.763 E0.01682
G1 X134.887 Y71.220 E0.78030
G1 X134.352 Y71.220 E0.01682
G1 X152.430 Y89.298 E0.80409
G1 X152.430 Y89.833 E0.01682
G1 X133.817 Y71.220 E0.82789
G1 X133.282 Y71.220 E0.01682
G1 X152.430 Y90.368 E0.85168
G1 X152.430 Y90.903 E0.01682
G1 X132.747 Y71.220 E0.87547
G1 X132.212 Y71.220 E0.01682
G1 X152.430 Y91.438 E0.89927
G1 X152.430 Y91.972 E0.01682
G1 X131.678 Y71.220 E0.92306
G1 X131.143 Y71.220 E0.01682
G1 X152.430 Y92.507 E0.94685
G1 X152.430 Y93.042 E0.01682
G1 X130.608 Y71.220 E0.97065
G1 X130.073 Y71.220 E0.01682
G1 X152.430 Y93.577 E0.99444
G1 X152.430 Y94.112 E0.01682
G1 X129.538 Y71.220 E1.01823
G1 X129.003 Y71.220 E0.01682
G1 X152.430 Y94.647 E1.04203
G1 X152.430 Y95.182 E0.01682
G1 X128.468 Y71.220 E1.06582
G1 X127.933 Y71.220 E0.01682
G1 X152.430 Y95.717 E1.08961
G1 X152.430 Y96.252 E0.01682
G1 X127.398 Y71.220 E1.11341
G1 X126.863 Y71.220 E0.01682
G1 X152.430 Y96.787 E1.13720
G1 X152.430 Y97.322 E0.01682
G1 X126.328 Y71.220 E1.16099
G1 X125.793 Y71.220 E0.01682
G1 X152.430 Y97.857 E1.18479
G1 X152.430 Y98.392 E0.01682
G1 X125.258 Y71.220 E1.20858
G1 X124.723 Y71.220 E0.01682
G1 X152.430 Y98.926 E1.23237
G1 X152.430 Y99.461 E0.01682
G1 X124.189 Y71.220 E1.25616
G1 X123.654 Y71.220 E0.01682
G1 X152.430 Y99.996 E1.27996
G1 X152.430 Y100.531 E0.01682
G1 X123.119 Y71.220 E1.30375
G1 X122.584 Y71.220 E0.01682
G1 X152.430 Y101.066 E1.32754
G1 X152.430 Y101.601 E0.01682
G1 X122.049 Y71.220 E1.35134
G1 X121.514 Y71.220 E0.01682
G1 X152.430 Y102.136 E1.37513
G1 X152.430 Y102.671 E0.01682
G1 X120.979 Y71.220 E1.39892
G1 X120.444 Y71.220 E0.01682
G1 X152.430 Y103.206 E1.42272
G1 X152.430 Y103.741 E0.01682
G1 X119.909 Y71.220 E1.44651
G1 X119.374 Y71.220 E0.01682
G1 X152.430 Y104.276 E1.47030
G1 X152.430 Y104.811 E0.01682
G1 X118.839 Y71.220 E1.49410
G1 X118.304 Y71.220 E0.01682
G1 X152.430 Y105.346 E1.51789
G1 X152.430 Y105.881 E0.01682
G1 X117.769 Y71.220 E1.54168
G1 X117.235 Y71.220 E0.01682
G1 X152.430 Y106.415 E1.56548
G1 X152.430 Y106.950 E0.01682
G1 X116.700 Y71.220 E1.58927
G1 X116.165 Y71.220 E0.01682
G1 X152.430 Y107.485 E1.61306
G1 X152.430 Y108.020 E0.01682
G1 X115.630 Y71.220 E1.63685
G1 X115.095 Y71.220 E0.01682
G1 X152.430 Y108.555 E1.66065
G1 X152.430 Y109.090 E0.01682
G1 X114.560 Y71.220 E1.68444
G1 X114.025 Y71.220 E0.01682
G1 X152.430 Y109.625 E1.70823
G1 X152.430 Y110.160 E0.01682
G1 X113.490 Y71.220 E1.73203
G1 X112.955 Y71.220 E0.01682
G1 X152.430 Y110.695 E1.75582
G1 X152.430 Y111.230 E0.01682
G1 X112.420 Y71.220 E1.77961
G1 X111.885 Y71.220 E0.01682
G1 X152.430 Y111.765 E1.80341
G1 X152.430 Y112.300 E0.01682
G1 X111.350 Y71.220 E1.82720
G1 X110.815 Y71.220 E0.01682
G1 X152.430 Y112.835 E1.85099
G1 X152.430 Y113.370 E0.01682
G1 X110.280 Y71.220 E1.87479
G1 X109.746 Y71.220 E0.01682
G1 X152.430 Y113.904 E1.89858
G1 X152.430 Y114.439 E0.01682
G1 X109.211 Y71.220 E1.92237
G1 X108.676 Y71.220 E0.01682
G1 X152.430 Y114.974 E1.94617
G1 X152.430 Y115.509 E0.01682
G1 X108.141 Y71.220 E1.96996
G1 X107.606 Y71.220 E0.01682
G1 X152.430 Y116.044 E1.99375
G1 X152.430 Y116.579 E0.01682
G1 X107.071 Y71.220 E2.01755
G1 X106.536 Y71.220 E0.01682
G1 X152.430 Y117.114 E2.04134
G1 X152.430 Y117.649 E0.01682
G1 X106.001 Y71.220 E2.06513
G1 X105.466 Y71.220 E0.01682
G1 X152.430 Y118.184 E2.08892
G1 X152.430 Y118.719 E0.01682
G1 X104.931 Y71.220 E2.11272
G1 X104.396 Y71.220 E0.01682
G1 X152.430 Y119.254 E2.13651
G1 X152.430 Y119.789 E0.01682
G1 X103.861 Y71.220 E2.16030
G1 X103.326 Y71.220 E0.01682
G1 X152.430 Y120.324 E2.18410
G1 X152.430 Y120.858 E0.01682
G1 X102.792 Y71.220 E2.20789
G1 X102.257 Y71.220 E0.01682
G1 X152.430 Y121.393 E2.23168
G1 X152.430 Y121.928 E0.01682
G1 X101.722 Y71.220 E2.25548
G1 X101.187 Y71.220 E0.01682
G1 X152.430 Y122.463 E2.27927
G1 X152.430 Y122.998 E0.01682
G1 X100.652 Y71.220 E2.30306
G1 X100.117 Y71.220 E0.01682
G1 X152.430 Y123.533 E2.32686
G1 X152.430 Y124.068 E0.01682
G1 X99.582 Y71.220 E2.35065
G1 X99.047 Y71.220 E0.01682
G1 X152.430 Y124.603 E2.37444
G1 X152.430 Y125.138 E0.01682
G1 X98.512 Y71.220 E2.39824
G1 X97.977 Y71.220 E0.01682
G1 X152.430 Y125.673 E2.42203
G1 X152.430 Y126.208 E0.01682
G1 X97.442 Y71.220 E2.44582
G1 X96.907 Y71.220 E0.01682
G1 X152.430 Y126.743 E2.46962
G1 X152.430 Y127.278 E0.01682
G1 X96.372 Y71.220 E2.49341
G1 X95.837 Y71.220 E0.01682
G1 X152.430 Y127.813 E2.51720
G1 X152.430 Y128.347 E0.01682
G1 X95.303 Y71.220 E2.54099
G1 X94.768 Y71.220 E0.01682
G1 X152.430 Y128.882 E2.56479
G1 X152.430 Y129.417 E0.01682
G1 X94.233 Y71.220 E2.58858
G1 X93.698 Y71.220 E0.01682
G1 X152.430 Y129.952 E2.61237
G1 X152.430 Y130.487 E0.01682
G1 X93.570 Y71.627 E2.61806
G1 X93.570 Y72.162 E0.01682
G1 X152.430 Y131.022 E2.61806
G1 X152.430 Y131.557 E0.01682
G1 X93.570 Y72.697 E2.61806
G1 X93.570 Y73.232 E0.01682
G1 X152.430 Y132.092 E2.61806
G1 X152.430 Y132.627 E0.01682
G1 X93.570 Y73.767 E2.61806
G1 X93.570 Y74.302 E0.01682
G1 X152.430 Y133.162 E2.61806
G1 X152.430 Y133.697 E0.01682
G1 X93.570 Y74.836 E2.61806
G1 X93.570 Y75.371 E0.01682
G1 X152.430 Y134.232 E2.61806
G1 X152.430 Y134.767 E0.01682
G1 X93.570 Y75.906 E2.61806
G1 X93.570 Y76.441 E0.01682
G1 X152.430 Y135.301 E2.61806
G1 X152.430 Y135.836 E0.01682
G1 X93.570 Y76.976 E2.61806
G1 X93.570 Y77.511 E0.01682
G1 X152.430 Y136.371 E2.61806
G1 X152.430 Y136.906 E0.01682
G1 X93.570 Y78.046 E2.61806
G1 X93.570 Y78.581 E0.01682
G1 X152.430 Y137.441 E2.61806
G1 X152.430 Y137.976 E0.01682
G1 X93.570 Y79.116 E2.61806
G1 X93.570 Y79.651 E0.01682
G1 X152.430 Y138.511 E2.61806
G1 X152.430 Y139.046 E0.01682
G1 X93.570 Y80.186 E2.61806
G1 X93.570 Y80.721 E0.01682
G1 X152.430 Y139.581 E2.61806
G1 X152.430 Y140.116 E0.01682
G1 X93.570 Y81.256 E2.61806
G1 X93.570 Y81.791 E0.01682
G1 X152.430 Y140.651 E2.61806
G1 X152.430 Y141.186 E0.01682
G1 X93.570 Y82.325 E2.61806
G1 X93.570 Y82.860 E0.01682
G1 X152.430 Y141.721 E2.61806
G1 X152.430 Y142.256 E0.01682
G1 X93.570 Y83.395 E2.61806
G1 X93.570 Y83.930 E0.01682
G1 X152.430 Y142.790 E2.61806
G1 X152.430 Y143.325 E0.01682
G1 X93.570 Y84.465 E2.61806
G1 X93.570 Y85.000 E0.01682
G1 X152.430 Y143.860 E2.61806
G1 X152.430 Y144.395 E0.01682
G1 X93.570 Y85.535 E2.61806
G1 X93.570 Y86.070 E0.01682
G1 X152.430 Y144.930 E2.61806
G1 X152.430 Y145.465 E0.01682
G1 X93.570 Y86.605 E2.61806
G1 X93.570 Y87.140 E0.01682
G1 X152.430 Y146.000 E2.61806
G1 X152.430 Y146.535 E0.01682
G1 X93.570 Y87.675 E2.61806
G1 X93.570 Y88.210 E0.01682
G1 X152.430 Y147.070 E2.61806
G1 X152.430 Y147.605 E0.01682
G1 X93.570 Y88.745 E2.61806
G1 X93.570 Y89.279 E0.01682
G1 X152.430 Y148.140 E2.61806
G1 X152.430 Y148.675 E0.01682
G1 X93.570 Y89.814 E2.61806
G1 X93.570 Y90.349 E0.01682
G1 X152.430 Y149.210 E2.61806
G1 X152.430 Y149.744 E0.01682
G1 X93.570 Y90.884 E2.61806
G1 X93.570 Y91.419 E0.01682
G1 X152.430 Y150.279 E2.61806
G1 X152.430 Y150.814 E0.01682
G1 X93.570 Y91.954 E2.61806
G1 X93.570 Y92.489 E0.01682
G1 X152.430 Y151.349 E2.61806
G1 X152.430 Y151.884 E0.01682
G1 X93.570 Y93.024 E2.61806
G1 X93.570 Y93.559 E0.01682
G1 X152.430 Y152.419 E2.61806
G1 X152.430 Y152.954 E0.01682
G1 X93.570 Y94.094 E2.61806
G1 X93.570 Y94.629 E0.01682
G1 X152.430 Y153.489 E2.61806
G1 X152.430 Y154.024 E0.01682
G1 X93.570 Y95.164 E2.61806
G1 X93.570 Y95.699 E0.01682
G1 X152.430 Y154.559 E2.61806
G1 X152.430 Y155.094 E0.01682
G1 X93.570 Y96.234 E2.61806
G1 X93.570 Y96.768 E0.01682
G1 X152.430 Y155.629 E2.61806
G1 X152.430 Y156.164 E0.01682
G1 X93.570 Y97.303 E2.61806
G1 X93.570 Y97.838 E0.01682
G1 X152.430 Y156.699 E2.61806
G1 X152.430 Y157.233 E0.01682
G1 X93.570 Y98.373 E2.61806
G1 X93.570 Y98.908 E0.01682
G1 X152.430 Y157.768 E2.61806
G1 X152.430 Y158.303 E0.01682
G1 X93.570 Y99.443 E2.61806
G1 X93.570 Y99.978 E0.01682
G1 X152.430 Y158.838 E2.61806
G1 X152.430 Y159.373 E0.01682
G1 X93.570 Y100.513 E2.61806
G1 X93.570 Y101.048 E0.01682
G1 X152.303 Y159.780 E2.61239
G1 X151.768 Y159.781 E0.01681
G1 X93.570 Y101.583 E2.58861
G1 X93.570 Y102.118 E0.01682
G1 X151.234 Y159.781 E2.56484
G1 X150.699 Y159.782 E0.01681
G1 X93.570 Y102.653 E2.54107
G1 X93.570 Y103.188 E0.01682
G1 X150.165 Y159.782 E2.51730
G1 X149.630 Y159.783 E0.01681
G1 X93.570 Y103.722 E2.49352
G1 X93.570 Y104.257 E0.01682
